X:314
T:Miss West’s Favourite Tune. JaW.314
M:C|
L:1/8
Q:1/2=80
S:James Winder Ms, Lancashire, 1835-41
R:.Hornpipe
O:England
A:Wyresdale,Lancashire
Z:vmp.Chris Partington, Aug 2004
K:A
c3d ecfe|dcBA AGFE|AEBE cEdE|cAdB AGFE|!
c3d ecfe|dcBA AGFE|AEBE cEdE|cBAG A2-A2″Sic”|A,2:|!
|:cABc ecBA|BGBd eceB|fBgB aBgB|fe^de f2B2|!
bBaB gBfB|gBbB f2B2|bBaB gBfB|gef^d e2B2:|

